X:1
T:Auditui meo dabis
T:Francisco Valls (1665-1747) Edited by Mick Swithinbank and Jonathan Goodliffe
T:The Bible, Psalm 50 verse 10
T:Auditui meo dabis
T:Extract from an incomplete Miserere a 12
C:Francisco Valls (1665-1747)
C:Edited by Mick Swithinbank and Jonathan Goodliffe
Z:The Bible, Psalm 50 verse 10
%%score [ 1 2 3 4 ]
L:1/8
M:4/4
K:C
V:1 treble nm="Alto" snm="A."
V:2 treble nm="Alto" snm="A."
V:3 treble nm="Alto" snm="A."
V:4 bass nm="Continuo (editorial)" snm="Cont."
V:1
 z8 | z8 | z8 | z4 z G GG/G/ | G/>A/G/>A/ F/>G/F/>G/ EC z2 | z8 | z4 z E EE/E/ | %7
w: |||Au- di- tu- i|me- * * * * * * * * o,||Au- di- tu- i|
 E/>F/E/>F/ D/>E/D/>E/ CA, z2 | z4 z2 C/>D/ B,/>C/ | D/>E/C/>D/ E/>F/D/>E/ F/>G/E/>F/ G/>A/G/>A/ | %10
w: me- * * * * * * * * o,|da- * bis *|gau- * * * * * * * * * * * * * * *|
 _B/>c/B/>A/ G>G F2 z2 | z2 EE F/>E/F/>G/ (A^C) | D>D A,2 z4 | z8 | %14
w: * * * * * di- um|et lae- ti- * * * * *|* ti- am,||
 z A AA/A/ A/>_B/A/>B/ G/>A/G/>A/ | FD z2 z4 | z2 F/>G/ E/>F/ G/>A/F/>G/ A/>B/A/>B/ | %17
w: au- di- tu- i me- * * * * * * *|* o,|da- * bis _ gau- * * * * * * *|
 cc/c/ c/>F/ G/>F/ E>E F2 | z4 z2 A/>B/ ^G/>A/ | B/>c/A/>B/ cB/>A/ ^GG/G/ AA, | E>E A,2 z4 | z8 | %22
w: di- um et lae- * * * ti- ti- am,|da- * bis _|gau- * * * * * * * di- um et lae-|ti- ti- am||
 z8 | z4 z G A/G/ A/G/ | c_B z2 z4 | z (G G)F/E/ F E/D/ ^C2 | D2 z2 z4 | z8 | z D E/D/ E/D/ GF z2 | %29
w: |et ex- * [s]ul- *|ta- bunt|os- * sa hu- mi- li- * a-|ta||et ex- * sul- * ta- bunt|
 z4 z (F F)E/D/ | E D/C/ B,2 C2 z2 | z4 C/D/E/F/ GG/G/ | (C2 _B,2) A,2 G,2 | z8 | z8 |] %35
w: os- * sa hu-|mi- li- * a- ta.|os- * * * sa hu- mi-|li- * a- ta.|||
V:2
"^Echo effect" z8 | z8 | z8 | z8 | z G GG/G/ G/>A/G/>A/ F/>G/F/>G/ | EC z2 z4 | z8 | %7
w: ||||Au- di- tu- i me- * * * * * * *|* o,||
 z E EE/E/ E/>F/E/>F/ D/>E/D/>E/ | CA, z2 z4 | z2 C/>D/ B,/>C/ D/>E/C/>D/ E/>F/D/>E/ | %10
w: Au- di- tu- i me- * * * * * * *|* o,|da- * bis * gau- * * * * * * *|
 F/>G/E/>F/ G/>A/G/>A/ _B/>c/B/>A/ G>G | F2 z2 z2 EE | F/>E/F/>G/ (A^C) D>D A,2 | z8 | %14
w: * * * * * * * * * * * * * di-|um et lae-|ti- * * * * * * ti- am,||
 z4 z A AA/A/ | A/>_B/A/>B/ G/>A/G/>A/ FD z2 | z4 z2 F/>G/ E/>F/ | %17
w: au- di- tu- i|me- * * * * * * * * o,|da- * bis _|
 G/>A/F/>G/ A/>B/A/>B/ cc/c/ c/>F/G/>F/ | E>E F2 z4 | z2 A/>B/ ^G/>A/ B/>c/A/>B/ cB/>A/ | %20
w: gau- * * * * * * * di- um et lae- * * *|ti- ti- am,|da- * bis _ gau- * * * * * *|
 ^GG/G/ AA, E>E A,2 | z8 | z8 | z8 | z G A/G/ A/G/ c_B z2 | z4 z (G G)F/E/ | F E/D/ ^C2 D2 z2 | %27
w: * di- um et lae- ti- ti- am||||et ex- * [s]ul- * ta- bunt|os- * sa hu-|mi- li- * a- ta|
 z8 | z4 z D E/D/ E/D/ | GF z2 z4 | z (F F)E/D/ E D/C/ B,2 | C2 z2 z4 | C/D/E/F/ GG/G/ (C2 _B,2) | %33
w: |et ex- * sul- *|ta- bunt|os- * sa hu- mi- li- * a-|ta.|os- * * * sa hu- mi- li- *|
 A,2 G,2 z4 | z8 |] %35
w: a- ta.||
V:3
"^Echo effect" z8 | z8 | z8 | z8 | z4 z G GG/G/ | G/>A/G/>A/ F/>G/F/>G/ EC z2 | z8 | z4 z E EE/E/ | %8
w: ||||Au- di- tu- i|me- * * * * * * * * o,||Au- di- tu- i|
 E/>F/E/>F/ D/>E/D/>E/ CA, z2 | z4 z2 C/>D/ B,/>C/ | D/>E/C/>D/ E/>F/D/>E/ F/>G/E/>F/ G/>A/G/>A/ | %11
w: me- * * * * * * * * o,|da- * bis _|gau- * * * * * * * * * * * * * * *|
 _B/>c/B/>A/ G>G F2 z2 | z2 EE F/>E/F/>G/ (A^C) | D>D A,2 z4 | z8 | %15
w: * * * * * di- um|et lae- ti- * * * * *|* ti- am,||
 z A AA/A/ A/>_B/A/>B/ G/>A/G/>A/ | FD z2 z4 | z2 F/>G/ E/>F/ G/>A/F/>G/ A/>B/A/>B/ | %18
w: au- di- tu- i me- * * * * * * *|* o,|da- * bis _ gau- * * * * * * *|
 cc/c/ c/>F/G/>F/ E>E F2 | z4 z2 A/>B/ ^G/>A/ | B/>c/A/>B/ cB/>A/ ^GG/G/ AA, | E>E A,2 z4 | z8 | %23
w: di- um et lae- * * * ti- ti- am,|da- * bis _|gau- * * * * * * * di- um et lae-|ti- ti- am||
 z8 | z4 z G A/G/ A/G/ | c_B z2 z4 | z (G G)F/E/ F E/D/ ^C2 | D2 z2 z4 | z8 | z D E/D/ E/D/ GF z2 | %30
w: |et ex- * sul _|ta- bunt|os- * sa hu- mi- li- * a-|ta||et ex- * sul- * ta- bunt|
 z4 z F- FE/D/ | E D/C/ B,2 C2 z2 | z4 C/D/E/F/ GG/G/ | C2 _B,2 A,2 G,2 | z8 |] %35
w: os- * sa hu-|mi- li- * a- ta.|os- * * * sa hu- mi-|li- * a- ta.||
V:4
 z4 z G,, G,G,,/>B,,/ | C,/>D,/E,/>C,/ G,G,, C,/>D,/E,/>C,/ G,G,, | %2
w: * * * 6|* * 6 * * * * * 6 * * *|
w: ||
w: ||
 F,/>G,/A,/>F,/ C/>C,/E,/>C,/ F,E,/>D,/ G,G,, | C,/>D,/E,/>C,/ G,/>C,/B,,/>A,,/ G,,2 G,G,, | %4
w: * * 6 * * * * * * * * * *|* * 6 * * * 6 * * * *|
w: ||
w: ||
 C,E,D,G,, C,E,D,G,, | C,E,D,G,, C,E,/>F,/ G,A, | G,/>F,/E,/>D,/ C,B,, A,,A,^G,E, | %7
w: * 6 6 * * 6 6 *|* 6 6 * * 6 * * *|* * * * * 6 * * 6 *|
w: * * 4 * * * 4 *|* * 4 * * * * * *|* * * * * 4 * * * *|
w: * * 3 * * * 3 *|* * 3 * * * * * *|* * * * * 3 * * * *|
 A,,A,^G,E, A,,A,G,E, | A,A,,D,E, F,F,,F,E, | D,A,,C,G,, D,A,,C,G,, | _B,, z C, z B,, z C, z | %11
w: * * 6 * * * 6 *||||
w: ||||
w: ||||
 G,,A,,/>_B,,/ C,/>D,/E,/>C,/ D,F,E,A,, | D,F,E,A,, D,F,E,A,, | D,F,E,A,, F,A,G,C, | %14
w: * * * * * 6 * * 6 6 *|* 6 6 * * 6 6 *|* 6 6 * * 6 6 *|
w: * * * * * * * * * 4 *|* * 4 * * * 4 *|* * 4 * * * 4 *|
w: |||
 F,A,E,A,, D,F,E,A,, | D,F,E,A,, D,F,E,A,, | D,E,/>F,/ G,G,, C,D,/>E,/ F,F,, | %17
w: * 6 6 * * 6 6 *|* 6 6 * * 6 6 *||
w: * * 4 * * * 4 *|* * 4 * * * 4 *||
w: |||
 C,D,/>E,/ F,F,, C,D,/>E,/ F,F,, | C,D,/>E,/ F,F,, C,D,/>E,/ F,F,, | ^G,E,A,A,, G,E,A,A,, | %20
w: ||6 * * * 6 * * *|
w: |||
w: |||
 ^G,E,A,A,, G,E,A,A,, | ^G,E,A,A,, D,/>E,/F,/>D,/=G,G,, | %22
w: 6 * * * 6 * * *|6 * * * * * 6 * * *|
w: ||
w: ||
 D,/>E,/F,/>D,/ G,G,, C,/>D,/E,/>C,/ F,/>E,/D,/>C,/ | %23
w: * * 6 * * * * * 6 * * * * *|
w: |
w: |
 B,,/>A,,/G,,/>B,,/ C,/>D,/E,/>C,/ F,C, F,A,/>B,/ | CC, F,A,/>B,/ CC, F,A,/>B,/ | %25
w: 6 6 * 6 * * 6 * * * * 6 *|* * * 6 * * * * 6 *|
w: ||
w: ||
 CC,/>D,/E,A,, D,F,E,A,, | D,F,E,A,, D,F,E,A,, | D,C, _B,,/>C,/D,/>B,,/ F,F,, B,,/>C,/D,/>B,,/ | %28
w: * * * 6 * * 6 6 *|* 6 6 * * 6 6 *|* * * * 6 * * * * * 6 *|
w: * * * 4 * * * 4 *|* * 4 * * * 4 *||
w: |||
 F,G,C,E, D,G,,C,E, | D,G,, C,E,/>F,/ G,D,G,,G, | C,D,G,,G, C,D,G,,G, | %31
w: * * * 6 6 * * 6|6 * * 6 * * * * *||
w: * * * * 4 * * *|4 * * * * * * * *||
w: |||
"^Note: The fact that notes are consistently dotted in bars 1-22 but not at all thereafter is suggestive: probably it is implied that thedotting should continue throughout the movement, and the simpler notation was employed simply because it was less laborious for the copyist. Performed literally, the movement would sound rather illogical. Cf. Colin Booth's book, 'Did Bach really mean that?' - Mick Swithinbank" C,B,,/>A,,/ G,,G, C,B,,/>A,,/ G,,C, | %32
w: * 6 * * * * 6 * * *|
w: |
w: |
 F,,F, C,/>D,/E,/>C,/ F,,F, C,/>D,/E,/>C,/ | F,,F, C,/>D,/E,/>C,/ F,,F, C,/>D,/E,/>C,/ | %34
w: * * * * 6 * * * * * 6 *|* * * * 6 * * * * * 6 *|
w: ||
w: ||
 G,,/>A,,/B,,/>G,,/ C,/>D,/E,/>C,/ G,, z !fermata!C,2 |] %35
w: * * 6 * * * 6 * * *|
w: |
w: |

